X:14
T:Bourrée du placard
O:France
A:Lot
R:Bourrée à 3 temps
C:Trad.
N:Collectée par Xavier Vidal
M:3/8
L:1/8
K:G
D|:"G"G A/B/ (3c/B/A/|ddd|"C"c/B/ce|"D"dd/c/B/A/|"G"G A/B/ (3c/B/A/|ddd|[1 "C"c/B/ce|"D"d2D:|[2 "C"c/B/cB|"D"A2D|:
"G"GAB/A/|G2d|"Am"c/B/AD|"G"GDD|GAB/A/|G2d|"Am"c/B/AD|[1 "G"G2 D:|[2 "G"GGD||G/A/B/c/d|d/d/e/f/g|g/g/gg|]

%%footer $D   Galouvielle-MBe 2005 \nBranle populaire France
